COLOR/action 16/16/edit-copy.svg

<svg height="16" width="16" xmlns="http://www.w3.org/2000/svg" xmlns:xlink="http://www.w3.org/1999/xlink"><linearGradient id="a" gradientTransform="matrix(0 -.03089488 .02703226 0 -3.923052 13.886365)" gradientUnits="userSpaceOnUse" x1="459.03448" x2="35.310345" xlink:href="#b" y1="419.23337" y2="207.36522"/><linearGradient id="b" gradientTransform="matrix(0 -.03089488 .02703226 0 2.577424 17.386363)" gradientUnits="userSpaceOnUse" x1="459.03448" x2="35.310345" y1="419.23337" y2="207.36522"><stop offset="0" stop-color="#f2f2f2"/><stop offset="1" stop-color="#f9f9f9"/></linearGradient><path d="m2.5728701.25c-2.10576746 0-2.33234326.2471914-2.32202246 2.6586513v3.3413482 3.3413495c-.01035 2.411459.216255 2.658651 2.32202246 2.658651h4.3556249c2.105775 0 2.32203-.247156 2.32203-2.658651v-3.3413495-3.3413482c0-2.4114855-.216263-2.6586513-2.32203-2.6586513z" fill="url(#a)" stroke-width=".945682"/><path d="m2.5727896 0c-.531333 0-.950263.013208-1.2988281.080078-.34856506.06687-.63924056.1965115-.84374996.4296875-.4090187.4663522-.4348816 1.1867946-.4296875 2.4003907v3.3398438 3.341797c-.00516 1.211862.020987 1.932453.4296875 2.398437.2045116.233176.4951829.362818.84374996.429688.3485671.06687.7674951.08008 1.2988281.08008h4.3554684c.531335 0 .95096-.01318 1.298828-.08008.347869-.0669.636125-.196472.839844-.429688.407438-.466431.433594-1.185217.433594-2.398437v-3.341797-3.3417969c0-1.2132161-.026155-1.9320051-.433594-2.3984375-.203719-.2332162-.491975-.3627837-.839844-.4296875-.347868-.0669037-.767495-.0800781-1.298828-.0800781zm0 .5h4.3554684c.521551 0 .92015.017467 1.205078.072266.284929.054799.443074.1375672.556641.2675782.227135.2600215.310547.8700895.310547 2.0683589v3.3417969 3.341797c0 1.198274-.08341 1.808339-.310547 2.068359-.113566.13001-.271712.21278-.556641.267578-.284928.0548-.683524.07227-1.205078.07227h-4.3554684c-.5215507 0-.9192331-.01743-1.2050781-.07227s-.44647996-.137523-.56054686-.267578c-.2281337-.260109-.3117818-.870497-.3066406-2.068359v-3.341797-3.3417969c-.0051267-1.1978638.0785098-1.8082508.3066406-2.0683593.1140654-.1300543.27470436-.2127414.56054686-.2675782s.6835274-.0722656 1.2050781-.0722656z" fill="#6c6c6c"/><path d="m9.0733461 3.749998c-2.1057675 0-2.3323433.2471914-2.3220225 2.6586513v3.3413482 3.3413495c-.01035 2.411459.216255 2.658651 2.3220225 2.658651h4.3556249c2.105775 0 2.32203-.247156 2.32203-2.658651v-3.3413495-3.3413482c0-2.4114855-.216263-2.6586513-2.32203-2.6586513z" fill="url(#b)" stroke-width=".945682"/><path d="m9.0732656 3.499998c-.531333 0-.950263.013208-1.2988281.080078s-.6392406.1965115-.84375.4296875c-.4090187.4663522-.4348816 1.1867946-.4296875 2.4003907v3.3398438 3.341797c-.00516 1.211862.020987 1.932453.4296875 2.398437.2045116.233176.4951829.362818.84375.429688s.7674951.08008 1.2988281.08008h4.3554684c.531335 0 .95096-.01318 1.298828-.08008.347869-.0669.636125-.196472.839844-.429688.407438-.466431.433594-1.185217.433594-2.398437v-3.341797-3.3417969c0-1.2132161-.026155-1.9320051-.433594-2.3984375-.203719-.2332162-.491975-.3627837-.839844-.4296875-.347868-.0669037-.767495-.0800781-1.298828-.0800781zm0 .5h4.3554684c.521551 0 .92015.017467 1.205078.072266.284929.054799.443074.1375672.556641.2675782.227135.2600215.310547.8700895.310547 2.0683589v3.3417969 3.341797c0 1.198274-.08341 1.808339-.310547 2.068359-.113566.13001-.271712.21278-.556641.267578-.284928.0548-.683524.07227-1.205078.07227h-4.3554684c-.5215507 0-.9192331-.01743-1.2050781-.07227s-.44648-.137523-.5605469-.267578c-.2281337-.260109-.3117818-.870497-.3066406-2.068359v-3.341797-3.3417969c-.0051267-1.1978638.0785098-1.8082508.3066406-2.0683593.1140654-.1300543.2747044-.2127414.5605469-.2675782s.6835274-.0722656 1.2050781-.0722656z" fill="#6c6c6c"/></svg>

<?xml version="1.0" encoding="UTF-8" standalone="no"?>
<svg
   xmlns:dc="http://purl.org/dc/elements/1.1/"
   xmlns:cc="http://creativecommons.org/ns#"
   xmlns:rdf="http://www.w3.org/1999/02/22-rdf-syntax-ns#"
   xmlns:svg="http://www.w3.org/2000/svg"
   xmlns="http://www.w3.org/2000/svg"
   xmlns:xlink="http://www.w3.org/1999/xlink"
   xmlns:sodipodi="http://sodipodi.sourceforge.net/DTD/sodipodi-0.dtd"
   xmlns:inkscape="http://www.inkscape.org/namespaces/inkscape"
   height="16"
   width="16"
   version="1.1"
   id="svg19"
   sodipodi:docname="edit-paste.svg"
   inkscape:version="0.92.4 (5da689c313, 2019-01-14)">
  <metadata
     id="metadata25">
    <rdf:RDF>
      <cc:Work
         rdf:about="">
        <dc:format>image/svg+xml</dc:format>
        <dc:type
           rdf:resource="http://purl.org/dc/dcmitype/StillImage" />
        <dc:title></dc:title>
      </cc:Work>
    </rdf:RDF>
  </metadata>
  <defs
     id="defs23">
    <linearGradient
       inkscape:collect="always"
       xlink:href="#a"
       id="linearGradient827"
       gradientUnits="userSpaceOnUse"
       gradientTransform="matrix(0,-0.03089488,0.02703226,0,-3.923052,13.886365)"
       x1="459.03448"
       y1="419.23337"
       x2="35.310345"
       y2="207.36522" />
  </defs>
  <sodipodi:namedview
     pagecolor="#ffffff"
     bordercolor="#666666"
     borderopacity="1"
     objecttolerance="10"
     gridtolerance="10"
     guidetolerance="10"
     inkscape:pageopacity="0"
     inkscape:pageshadow="2"
     inkscape:window-width="1920"
     inkscape:window-height="1016"
     id="namedview21"
     showgrid="true"
     inkscape:zoom="52.4375"
     inkscape:cx="8"
     inkscape:cy="8"
     inkscape:window-x="0"
     inkscape:window-y="27"
     inkscape:window-maximized="1"
     inkscape:current-layer="svg19">
    <inkscape:grid
       type="xygrid"
       id="grid848" />
  </sodipodi:namedview>
  <linearGradient
     id="a"
     gradientTransform="matrix(0,-0.03089488,0.02703226,0,2.577424,17.386363)"
     gradientUnits="userSpaceOnUse"
     x1="459.03448"
     x2="35.310345"
     y1="419.23337"
     y2="207.36522">
    <stop
       offset="0"
       stop-color="#f2f2f2"
       id="stop2" />
    <stop
       offset="1"
       stop-color="#f9f9f9"
       id="stop4" />
  </linearGradient>
  <path
     inkscape:connector-curvature="0"
     style="fill:url(#linearGradient827);stroke-width:0.94568235"
     id="path823"
     d="M 2.5728701,0.25 C 0.46710264,0.25 0.24052684,0.4971914 0.25084764,2.9086513 V 6.2499995 9.591349 C 0.24049764,12.002808 0.46710264,12.25 2.5728701,12.25 H 6.928495 c 2.105775,0 2.32203,-0.247156 2.32203,-2.658651 V 6.2499995 2.9086513 C 9.250525,0.4971658 9.034262,0.25 6.928495,0.25 Z" />
  <path
     inkscape:connector-curvature="0"
     id="path825"
     d="M 2.5727896,0 C 2.0414566,0 1.6225266,0.013208 1.2739615,0.080078 0.92539644,0.146948 0.63472094,0.2765895 0.43021154,0.5097655 0.02119284,0.9761177 -0.00467006,1.6965601 5.2403982e-4,2.9101562 V 6.25 9.591797 c -0.00516,1.211862 0.0209870002,1.932453 0.42968750018,2.398437 0.2045116,0.233176 0.4951829,0.362818 0.84374996,0.429688 0.3485671,0.06687 0.7674951,0.08008 1.2988281,0.08008 H 6.928258 c 0.531335,0 0.95096,-0.01318 1.298828,-0.08008 0.347869,-0.0669 0.636125,-0.196472 0.839844,-0.429688 0.407438,-0.466431 0.433594,-1.185217 0.433594,-2.398437 V 6.25 2.9082031 C 9.500524,1.694987 9.474369,0.976198 9.06693,0.5097656 8.863211,0.2765494 8.574955,0.1469819 8.227086,0.0800781 7.879218,0.0131744 7.459591,0 6.928258,0 Z m 0,0.5 H 6.928258 c 0.521551,0 0.92015,0.017467 1.205078,0.072266 0.284929,0.054799 0.443074,0.1375672 0.556641,0.2675782 0.227135,0.2600215 0.310547,0.8700895 0.310547,2.0683589 V 6.25 9.591797 c 0,1.198274 -0.08341,1.808339 -0.310547,2.068359 -0.113566,0.13001 -0.271712,0.21278 -0.556641,0.267578 -0.284928,0.0548 -0.683524,0.07227 -1.205078,0.07227 H 2.5727896 c -0.5215507,0 -0.9192331,-0.01743 -1.2050781,-0.07227 C 1.0818665,11.872894 0.92123154,11.790211 0.80716464,11.660156 0.57903094,11.400047 0.49538284,10.789659 0.50052404,9.591797 V 6.25 2.9082031 C 0.49539734,1.7103393 0.57903384,1.0999523 0.80716464,0.8398438 0.92123004,0.7097895 1.081869,0.6271024 1.3677115,0.5722656 1.653554,0.5174288 2.0512389,0.5 2.5727896,0.5 Z"
     style="color:#000000;font-style:normal;font-variant:normal;font-weight:normal;font-stretch:normal;font-size:medium;line-height:normal;font-family:sans-serif;font-variant-ligatures:normal;font-variant-position:normal;font-variant-caps:normal;font-variant-numeric:normal;font-variant-alternates:normal;font-feature-settings:normal;text-indent:0;text-align:start;text-decoration:none;text-decoration-line:none;text-decoration-style:solid;text-decoration-color:#000000;letter-spacing:normal;word-spacing:normal;text-transform:none;writing-mode:lr-tb;direction:ltr;text-orientation:mixed;dominant-baseline:auto;baseline-shift:baseline;text-anchor:start;white-space:normal;shape-padding:0;clip-rule:nonzero;display:inline;overflow:visible;visibility:visible;opacity:1;isolation:auto;mix-blend-mode:normal;color-interpolation:sRGB;color-interpolation-filters:linearRGB;solid-color:#000000;solid-opacity:1;vector-effect:none;fill:#6c6c6c;fill-opacity:1;fill-rule:nonzero;stroke:none;stroke-width:0.5;stroke-linecap:butt;stroke-linejoin:miter;stroke-miterlimit:4;stroke-dasharray:none;stroke-dashoffset:0;stroke-opacity:1;color-rendering:auto;image-rendering:auto;shape-rendering:auto;text-rendering:auto;enable-background:accumulate" />
  <path
     d="m 9.0733461,3.749998 c -2.1057675,0 -2.3323433,0.2471914 -2.3220225,2.6586513 v 3.3413482 3.3413495 c -0.01035,2.411459 0.216255,2.658651 2.3220225,2.658651 h 4.3556249 c 2.105775,0 2.32203,-0.247156 2.32203,-2.658651 V 9.7499975 6.4086493 c 0,-2.4114855 -0.216263,-2.6586513 -2.32203,-2.6586513 z"
     id="path15"
     style="fill:url(#a);stroke-width:0.94568235"
     inkscape:connector-curvature="0" />
  <path
     style="color:#000000;font-style:normal;font-variant:normal;font-weight:normal;font-stretch:normal;font-size:medium;line-height:normal;font-family:sans-serif;font-variant-ligatures:normal;font-variant-position:normal;font-variant-caps:normal;font-variant-numeric:normal;font-variant-alternates:normal;font-feature-settings:normal;text-indent:0;text-align:start;text-decoration:none;text-decoration-line:none;text-decoration-style:solid;text-decoration-color:#000000;letter-spacing:normal;word-spacing:normal;text-transform:none;writing-mode:lr-tb;direction:ltr;text-orientation:mixed;dominant-baseline:auto;baseline-shift:baseline;text-anchor:start;white-space:normal;shape-padding:0;clip-rule:nonzero;display:inline;overflow:visible;visibility:visible;opacity:1;isolation:auto;mix-blend-mode:normal;color-interpolation:sRGB;color-interpolation-filters:linearRGB;solid-color:#000000;solid-opacity:1;vector-effect:none;fill:#6c6c6c;fill-opacity:1;fill-rule:nonzero;stroke:none;stroke-width:0.5;stroke-linecap:butt;stroke-linejoin:miter;stroke-miterlimit:4;stroke-dasharray:none;stroke-dashoffset:0;stroke-opacity:1;color-rendering:auto;image-rendering:auto;shape-rendering:auto;text-rendering:auto;enable-background:accumulate"
     d="m 9.0732656,3.499998 c -0.531333,0 -0.950263,0.013208 -1.2988281,0.080078 C 7.4258724,3.646946 7.1351969,3.7765875 6.9306875,4.0097635 6.5216688,4.4761157 6.4958059,5.1965581 6.501,6.4101542 v 3.3398438 3.341797 c -0.00516,1.211862 0.020987,1.932453 0.4296875,2.398437 0.2045116,0.233176 0.4951829,0.362818 0.84375,0.429688 C 8.1230046,15.98679 8.5419326,16 9.0732656,16 h 4.3554684 c 0.531335,0 0.95096,-0.01318 1.298828,-0.08008 0.347869,-0.0669 0.636125,-0.196472 0.839844,-0.429688 C 15.974844,15.023801 16.001,14.305015 16.001,13.091795 V 9.749998 6.4082011 C 16.001,5.194985 15.974845,4.476196 15.567406,4.0097636 15.363687,3.7765474 15.075431,3.6469799 14.727562,3.5800761 14.379694,3.5131724 13.960067,3.499998 13.428734,3.499998 Z m 0,0.5 h 4.3554684 c 0.521551,0 0.92015,0.017467 1.205078,0.072266 0.284929,0.054799 0.443074,0.1375672 0.556641,0.2675782 C 15.417588,4.5998637 15.501,5.2099317 15.501,6.4082011 v 3.3417969 3.341797 c 0,1.198274 -0.08341,1.808339 -0.310547,2.068359 -0.113566,0.13001 -0.271712,0.21278 -0.556641,0.267578 -0.284928,0.0548 -0.683524,0.07227 -1.205078,0.07227 H 9.0732656 c -0.5215507,0 -0.9192331,-0.01743 -1.2050781,-0.07227 -0.285845,-0.05484 -0.44648,-0.137523 -0.5605469,-0.267578 C 7.0795069,14.900045 6.9958588,14.289657 7.001,13.091795 V 9.749998 6.4082011 C 6.9958733,5.2103373 7.0795098,4.5999503 7.3076406,4.3398418 7.421706,4.2097875 7.582345,4.1271004 7.8681875,4.0722636 8.15403,4.0174268 8.5517149,3.999998 9.0732656,3.999998 Z"
     id="path852"
     inkscape:connector-curvature="0" />
</svg>
